X:648
T: Lingxiu jiubie huiguxiang
N: C2172
O: China, Hunan Shaoshan
S: I, 488]
R: Shange]
M: 2/4
L: 1/16
K: G
(3d2d2e2 | g4(3e2g2e2 | d8 | aag4g6 | e2g6 |
z4(3d2d2e2 | a2g4e2 | d8 | g2g2-g8 | e2a2e4 | d8 |
d2d2e2d2 | g2e2g8 | eeg6e2e2 | d4g8
z2ddd2e2 | d8 | e2e2g8 | e2g6 |
a2d2e2g6 | e2d6 | e2g2-g8 | a2d2e4 | d8

